assets/spraw/zhp_harc_sim_2022/pasje_i_specjalnosci/straznik_granicy.svg

<?xml version="1.0" encoding="UTF-8" standalone="no"?>
<svg
   xmlns:dc="http://purl.org/dc/elements/1.1/"
   xmlns:cc="http://creativecommons.org/ns#"
   xmlns:rdf="http://www.w3.org/1999/02/22-rdf-syntax-ns#"
   xmlns:svg="http://www.w3.org/2000/svg"
   xmlns="http://www.w3.org/2000/svg"
   xmlns:sodipodi="http://sodipodi.sourceforge.net/DTD/sodipodi-0.dtd"
   xmlns:inkscape="http://www.inkscape.org/namespaces/inkscape"
   inkscape:version="1.0 (4035a4fb49, 2020-05-01)"
   sodipodi:docname="sprawnosci-h-Straznik-granicy.svg"
   id="svg26"
   xml:space="preserve"
   style="enable-background:new 0 0 90.709 90.709;"
   viewBox="0 0 90.709 90.709"
   y="0px"
   x="0px"
   version="1.1"><metadata
   id="metadata32"><rdf:RDF><cc:Work
       rdf:about=""><dc:format>image/svg+xml</dc:format><dc:type
         rdf:resource="http://purl.org/dc/dcmitype/StillImage" /><dc:title></dc:title></cc:Work></rdf:RDF></metadata><defs
   id="defs30"><clipPath
     id="clipPath50"
     clipPathUnits="userSpaceOnUse"><circle
       r="71.826721"
       cy="45.909863"
       cx="197.70859"
       id="circle52"
       style="fill:#f15a38;fill-rule:evenodd;stroke:none;stroke-width:19.3805;stroke-linecap:round;stop-color:#000000" /></clipPath><clipPath
     id="clipPath1011"
     clipPathUnits="userSpaceOnUse"><circle
       style="opacity:0.5;fill:#f15a38;fill-rule:evenodd;stroke:none;stroke-width:47.6107;stroke-linecap:round;stop-color:#000000"
       id="circle1013"
       cx="385.84714"
       cy="59.05611"
       r="101.44066" /></clipPath><clipPath
     id="clipPath1081"
     clipPathUnits="userSpaceOnUse"><circle
       style="opacity:0.5;fill:#f15a38;fill-rule:evenodd;stroke:none;stroke-width:102.222;stroke-linecap:round;stop-color:#000000"
       id="circle1083"
       cx="-592.00348"
       cy="126.60494"
       r="217.79622" /></clipPath><clipPath
     id="clipPath1277"
     clipPathUnits="userSpaceOnUse"><circle
       style="opacity:0.5;fill:#f15a38;fill-rule:evenodd;stroke:none;stroke-width:78.1231;stroke-linecap:round;stop-color:#000000"
       id="circle1279"
       cx="326.76178"
       cy="-601.58362"
       r="166.45103" /></clipPath><clipPath
     id="clipPath1281"
     clipPathUnits="userSpaceOnUse"><circle
       style="opacity:0.5;fill:#f15a38;fill-rule:evenodd;stroke:none;stroke-width:94.1746;stroke-linecap:round;stop-color:#000000"
       id="circle1283"
       cx="441.13412"
       cy="-232.99599"
       r="200.651" /></clipPath><clipPath
     id="clipPath1285"
     clipPathUnits="userSpaceOnUse"><circle
       style="opacity:0.5;fill:#f15a38;fill-rule:evenodd;stroke:none;stroke-width:86.4305;stroke-linecap:round;stop-color:#000000"
       id="circle1287"
       cx="-556.18292"
       cy="-359.95541"
       r="184.151" /></clipPath><clipPath
     id="clipPath1289"
     clipPathUnits="userSpaceOnUse"><circle
       style="opacity:0.5;fill:#f15a38;fill-rule:evenodd;stroke:none;stroke-width:81.5288;stroke-linecap:round;stop-color:#000000"
       id="circle1291"
       cx="-589.78162"
       cy="-999.40125"
       r="173.70735" /></clipPath><clipPath
     clipPathUnits="userSpaceOnUse"
     id="clipPath50-2"><circle
       style="fill:#f15a38;fill-rule:evenodd;stroke:none;stroke-width:19.3805;stroke-linecap:round;stop-color:#000000"
       id="circle52-3"
       cx="197.70859"
       cy="45.909863"
       r="71.826721" /></clipPath><clipPath
     clipPathUnits="userSpaceOnUse"
     id="clipPath1011-9"><circle
       r="101.44066"
       cy="59.05611"
       cx="385.84714"
       id="circle1013-4"
       style="opacity:0.5;fill:#f15a38;fill-rule:evenodd;stroke:none;stroke-width:47.6107;stroke-linecap:round;stop-color:#000000" /></clipPath><clipPath
     clipPathUnits="userSpaceOnUse"
     id="clipPath1081-3"><circle
       r="217.79622"
       cy="126.60494"
       cx="-592.00348"
       id="circle1083-5"
       style="opacity:0.5;fill:#f15a38;fill-rule:evenodd;stroke:none;stroke-width:102.222;stroke-linecap:round;stop-color:#000000" /></clipPath><clipPath
     clipPathUnits="userSpaceOnUse"
     id="clipPath1281-0"><circle
       r="200.651"
       cy="-232.99599"
       cx="441.13412"
       id="circle1283-7"
       style="opacity:0.5;fill:#f15a38;fill-rule:evenodd;stroke:none;stroke-width:94.1746;stroke-linecap:round;stop-color:#000000" /></clipPath><clipPath
     clipPathUnits="userSpaceOnUse"
     id="clipPath1277-9"><circle
       r="166.45103"
       cy="-601.58362"
       cx="326.76178"
       id="circle1279-0"
       style="opacity:0.5;fill:#f15a38;fill-rule:evenodd;stroke:none;stroke-width:78.1231;stroke-linecap:round;stop-color:#000000" /></clipPath><clipPath
     clipPathUnits="userSpaceOnUse"
     id="clipPath1285-8"><circle
       r="184.151"
       cy="-359.95541"
       cx="-556.18292"
       id="circle1287-7"
       style="opacity:0.5;fill:#f15a38;fill-rule:evenodd;stroke:none;stroke-width:86.4305;stroke-linecap:round;stop-color:#000000" /></clipPath><clipPath
     clipPathUnits="userSpaceOnUse"
     id="clipPath1289-9"><circle
       r="173.70735"
       cy="-999.40125"
       cx="-589.78162"
       id="circle1291-7"
       style="opacity:0.5;fill:#f15a38;fill-rule:evenodd;stroke:none;stroke-width:81.5288;stroke-linecap:round;stop-color:#000000" /></clipPath></defs><sodipodi:namedview
   inkscape:snap-global="false"
   inkscape:current-layer="svg26"
   inkscape:cy="-64.507879"
   inkscape:cx="-41.145674"
   inkscape:zoom="2"
   showgrid="false"
   id="namedview28"
   inkscape:window-height="480"
   inkscape:window-width="640"
   inkscape:pageshadow="2"
   inkscape:pageopacity="0"
   guidetolerance="10"
   gridtolerance="10"
   objecttolerance="10"
   borderopacity="1"
   bordercolor="#666666"
   pagecolor="#ffffff" />
<g
   id="ratownik-1">
	<g
   id="g10">
		<g
   id="g8">
			
				<ellipse
   id="ellipse2"
   ry="43.52"
   rx="43.52"
   cy="45.355"
   cx="45.354"
   style="fill:#194093;"
   transform="matrix(0.7071 -0.7071 0.7071 0.7071 -18.7867 45.3541)" />
			<g
   id="g6">
				<path
   id="path4"
   d="M45.354,2.835c23.483,0,42.52,19.037,42.52,42.52c0,23.483-19.037,42.52-42.52,42.52      c-23.483,0-42.52-19.037-42.52-42.52C2.835,21.871,21.871,2.835,45.354,2.835 M45.354,0.835c-24.548,0-44.52,19.972-44.52,44.52      s19.972,44.52,44.52,44.52s44.52-19.972,44.52-44.52S69.902,0.835,45.354,0.835L45.354,0.835z"
   style="fill:#252E78;" />
			</g>
		</g>
	</g>
</g>

<path
   d="M 40.396484 31.037109 C 40.378079 31.061692 40.348193 31.100849 40.330078 31.125 L 40.285156 40.255859 L 45.546875 44.46875 L 50.607422 40.416016 L 50.5625 31.125 C 50.553888 31.113516 50.545724 31.101332 50.537109 31.089844 L 45.40625 35.1875 L 40.396484 31.037109 z M 40.248047 48.164062 L 40.203125 57.482422 L 45.546875 61.761719 L 50.689453 57.642578 L 50.644531 48.324219 L 45.546875 52.40625 L 40.248047 48.164062 z M 40.164062 65.390625 L 40.123047 74.257812 L 45.546875 78.601562 L 50.771484 74.417969 L 50.728516 65.550781 L 45.546875 69.699219 L 40.164062 65.390625 z "
   style="opacity:1;fill:#ffffff;fill-rule:evenodd;stroke:none;stroke-width:1px;stroke-linecap:butt;stroke-linejoin:miter;stroke-opacity:1"
   id="path1766" /><path
   d="M 45.445312 24.302734 C 44.28969 25.694024 41.882869 29.051808 40.396484 31.037109 L 45.40625 35.1875 L 50.537109 31.089844 C 48.851325 28.841752 47.107062 26.518236 45.445312 24.302734 z M 40.285156 40.255859 L 40.248047 48.164062 L 45.546875 52.40625 L 50.644531 48.324219 L 50.607422 40.416016 L 45.546875 44.46875 L 40.285156 40.255859 z M 40.203125 57.482422 L 40.164062 65.390625 L 45.546875 69.699219 L 50.728516 65.550781 L 50.689453 57.642578 L 45.546875 61.761719 L 40.203125 57.482422 z M 40.123047 74.257812 L 40.080078 83 L 40.136719 83 L 40.125 83.125 C 43.741555 84.179519 47.275685 84.016066 50.767578 83.125 L 50.755859 83 L 50.8125 83 L 50.771484 74.417969 L 45.546875 78.601562 L 40.123047 74.257812 z "
   style="opacity:1;fill:#ce181e;fill-rule:evenodd;stroke:none;stroke-width:1px;stroke-linecap:butt;stroke-linejoin:miter;stroke-opacity:1"
   id="path1773" /><path
   d="M 39.068359 16.792969 L 16.439453 24.085938 L 18.03125 53.5625 L 36.328125 66.335938 L 35.884766 30.40625 L 47.376953 17.191406 L 39.068359 16.792969 z M 66.601562 21.037109 L 48.347656 22.185547 L 54.402344 29.654297 L 54.359375 69.605469 L 66.822266 73.185547 L 73.494141 59.441406 L 70.931641 42.646484 L 67.882812 40.96875 L 67.882812 39.289062 L 71.152344 35.708984 L 66.601562 21.037109 z "
   style="fill:#ffffff;fill-rule:evenodd;stroke:none;stroke-width:1px;stroke-linecap:butt;stroke-linejoin:miter;stroke-opacity:1"
   id="path1799" /></svg>

<svg xmlns="http://www.w3.org/2000/svg" viewBox="0 0 90.709 90.709"><circle cy="45.355" cx="45.354" transform="matrix(.7071 -.7071 .7071 .7071 -18.7867 45.3541)" r="43.52" fill="#194093"/><path d="M45.354 2.835c23.483 0 42.52 19.037 42.52 42.52s-19.037 42.52-42.52 42.52-42.52-19.037-42.52-42.52 19.037-42.52 42.52-42.52m0-2C20.806.835.834 20.807.834 45.355s19.972 44.52 44.52 44.52 44.52-19.972 44.52-44.52S69.902.835 45.354.835h0z" fill="#252e78"/><g fill-rule="evenodd"><path d="M40.396 31.037l-.066.088-.045 9.131 5.262 4.213 5.061-4.053-.045-9.291-.025-.035-5.131 4.098-5.01-4.15zm-.148 17.127l-.045 9.318 5.344 4.279 5.143-4.119-.045-9.318-5.098 4.082-5.299-4.242zm-.084 17.227l-.041 8.867 5.424 4.344 5.225-4.184-.043-8.867-5.182 4.148-5.383-4.309z" fill="#fff"/><path d="M45.445 24.303l-5.049 6.734 5.01 4.15 5.131-4.098-5.092-6.787zm-5.16 15.953l-.037 7.908 5.299 4.242 5.098-4.082-.037-7.908-5.061 4.053-5.262-4.213zm-.082 17.227l-.039 7.908 5.383 4.309 5.182-4.148-.039-7.908-5.143 4.119-5.344-4.279zm-.08 16.775L40.08 83h.057l-.012.125c3.617 1.055 7.151.891 10.643 0L50.756 83h.057l-.041-8.582-5.225 4.184-5.424-4.344z" fill="#ce181e"/><path d="M39.068 16.793l-22.629 7.293 1.592 29.477 18.297 12.773-.443-35.93 11.492-13.215-8.309-.398zm27.533 4.244l-18.254 1.148 6.055 7.469-.043 39.951 12.463 3.58 6.672-13.744-2.562-16.795-3.049-1.678v-1.68l3.27-3.58-4.551-14.672z" fill="#fff"/></g></svg>
